X:5
T:Gigue (suite en La mineur)
R:Gigue
G:guitare
C:Robert de Vise
B:I. livre de guittarre ddi au Roy (1682)
O:France
Z:<anamnese@laposte.net> -- http://anamnese.fr.st
M:3/4
L:1/8
Q:1/4=155
K:Am
K:C
%%staves (1 2)
V:1
%%MIDI program 24
%%MIDI channel 1
%%MIDI transpose -12
%%MIDI control 7 120 %volume
%%MIDI control 10 85 %pan
A B2    |: c2>c2 d2 | e6 | e2>^f2g2 | !trill!^f6 |
 ^f2>^g2 a2 | !trill!^g6 | a6    | b2>a2b2       | c'2>b2 a2    | !trill!=g4 g2 |
[e3g3] a e2  | [A6d6f6]   | z3 g d2  | e3 e d2 | !trill!c4 B2 | A6 | 
d3 c d2 | !trill!B6 | g3 f e2 | f3 g e2-|e2 !trill!d3 [Be] |
[^G6B6e6] | z3 B-B2 |1 [B3e3] A B2 :|2 [B4e4] |: b2 | (c'2b2) a2 |
!trill!^g6-|g4 ^g2 | a4 a2 | (a2=g2) f2 | !trill!e4 e2 |
[E3A3^c3e3]fg2 | f3 g e2 | d3 e c2 | !trill!B6 | z6 | 
z2 c2 d2 | !trill!d3 c B2 | c4 g2 | c'3 c'b2 | (a2b2) c'2 |
!trill!b4 a2 | !trill![^g4e4] e2 | (a2=g2) a2 | !trill! ^f4 d2 | (g2=f2) f2 |
!trill!e3 f g2 | !trill!f4e2 | !trill!d4c2 | !trill!B4A2 | !trill!^G6 |
!trill![D3d3] (cB2) | z3 A [D2B2] | !trill![A3B3] A ^G2 | (^G2A4) | z3 c-c2 | [c4e4] :|
V:2
%%MIDI program 24
%%MIDI channel 2
%%MIDI transpose -12
%%MIDI control 7 120 %volume
%%MIDI control 10 45 %pan
z z2 |: [E6A6] | z3A B2 | c6 | [D3d3] c [D2d2] |
 B6 | [B3e3] e [D2d2] | c2B2A2 | [^G6d6e6] | [A6c6e6] | [B6d6] |
[G4c4] z2 | D3 [Dd] c2 | !trill!B6 | [E4G4c4] D2 | E6 | F2>E2 F2 |
D6 | G3 F G2 | E6 | [D4A4d4] (A2|G2) F3 [E^G] |
[E4^G4] B2 | E4 ^G2 |1 [E3^G3] z z2 :|2 [E4^G4] |: z2 | z6 | 
z4 e2 | (f2e2) d2 | [c6e6] | c6 | c6 |
A6 | d4 =c2 | B4 A2 | G4 G2 | (F2E2)D2 |
E4 F2 | G3 z z2 |  [E4G4] z2 | [G6c6e6] | f6 |
[d4f4] z2 | B6 | ^c6 | D6 | B6 |
c6 | [D4B4] c2 | B4 A2 | D6 | E4 E2 |
[^G6B6] | c6 | E6 | A4 E2 | A4 A2 | [E4A4] :|
